source/img/icons/socials/linkedin_darkblue.svg

<svg width="32" height="32" viewBox="0 0 32 32" fill="none" xmlns="http://www.w3.org/2000/svg">
<path d="M4.46511 0C2.00791 0 0 2.00791 0 4.46512C0 6.92232 2.00791 8.93023 4.46511 8.93023C6.9223 8.93023 8.93021 6.92232 8.93021 4.46512C8.93021 2.00791 6.9223 0 4.46511 0ZM4.46511 1.48837C6.11793 1.48837 7.44185 2.81229 7.44185 4.46512C7.44185 6.11794 6.11793 7.44186 4.46511 7.44186C2.81229 7.44186 1.48837 6.11794 1.48837 4.46512C1.48837 2.81229 2.81229 1.48837 4.46511 1.48837ZM23.8139 9.67442C21.4345 9.67442 19.8172 10.6863 18.6046 11.8488V11.1628C18.6046 10.7731 18.2501 10.4186 17.8604 10.4186H11.907C11.5173 10.4186 11.1628 10.7731 11.1628 11.1628V31.2558C11.1628 31.6455 11.5173 32 11.907 32H18.2325C18.6222 32 18.9767 31.6455 18.9767 31.2558V20.093C18.9767 19.1512 19.2736 18.2586 19.7093 17.6512C20.145 17.0437 20.6717 16.7442 21.2093 16.7442H21.9534C22.491 16.7442 23.0177 17.0437 23.4534 17.6512C23.8892 18.2586 24.186 19.1512 24.186 20.093V31.2558C24.186 31.6455 24.5405 32 24.9302 32H31.2558C31.6454 32 31.9999 31.6455 31.9999 31.2558V27.1628C32.0055 26.7696 31.649 26.408 31.2558 26.408C30.8625 26.408 30.506 26.7696 30.5116 27.1628V30.5116H25.6744V20.093C25.6744 18.8497 25.3031 17.6835 24.6627 16.7907C24.0224 15.8979 23.065 15.2558 21.9534 15.2558H21.2093C20.0977 15.2558 19.1403 15.8979 18.5 16.7907C17.8596 17.6835 17.4883 18.8497 17.4883 20.093V24.5581C17.3434 24.558 17.1862 24.5581 17.0465 24.5581C16.6568 24.5763 16.3188 24.9475 16.337 25.3372C16.3553 25.7269 16.7265 26.0649 17.1162 26.0465H17.4883V27.5349C17.3434 27.5348 17.1862 27.5349 17.0465 27.5349C16.6568 27.5531 16.3188 27.9243 16.337 28.314C16.3553 28.7037 16.7265 29.0416 17.1162 29.0233H17.4883V30.5116H12.6511V11.907H17.1162V13.7674C17.1161 14.0735 17.3253 14.3688 17.6141 14.4701C17.9029 14.5714 18.2507 14.4716 18.4418 14.2326C19.6912 12.6749 21.0225 11.1628 23.8139 11.1628C26.4833 11.1628 28.0764 11.849 29.0697 13.0116C30.063 14.1743 30.5116 15.9425 30.5116 18.2326V24.186C30.506 24.5792 30.8625 24.9408 31.2558 24.9408C31.649 24.9408 32.0055 24.5792 31.9999 24.186V18.2326C31.9999 15.7518 31.5349 13.5981 30.2092 12.0465C28.8836 10.4949 26.7525 9.67442 23.8139 9.67442ZM1.4186 10.4186C1.05277 10.4531 0.7426 10.7953 0.744185 11.1628V31.2558C0.744224 31.6455 1.09873 32 1.48837 32H7.81394C8.20358 32 8.55808 31.6455 8.55812 31.2558V11.1628C8.55808 10.7731 8.20358 10.4186 7.81394 10.4186C5.68436 10.4186 3.54297 10.4186 1.4186 10.4186ZM2.23255 11.907H7.06975V24.5581C6.92484 24.558 6.76764 24.5581 6.62789 24.5581C6.23819 24.5763 5.90018 24.9475 5.91844 25.3372C5.93671 25.7269 6.30796 26.0649 6.69766 26.0465H7.06975V27.5349C6.92484 27.5348 6.76764 27.5349 6.62789 27.5349C6.23819 27.5531 5.90018 27.9243 5.91844 28.314C5.93671 28.7037 6.30796 29.0416 6.69766 29.0233H7.06975V30.5116H2.23255V11.907Z" fill="#1F3F68"/>
</svg>

<svg width="32" height="32" fill="none" xmlns="http://www.w3.org/2000/svg"><path d="M4.465 0A4.476 4.476 0 000 4.465 4.476 4.476 0 004.465 8.93 4.476 4.476 0 008.93 4.465 4.476 4.476 0 004.465 0zm0 1.488a2.966 2.966 0 012.977 2.977 2.966 2.966 0 01-2.977 2.977 2.966 2.966 0 01-2.977-2.977 2.966 2.966 0 012.977-2.977zm19.349 8.186c-2.38 0-3.997 1.012-5.21 2.175v-.686a.773.773 0 00-.744-.744h-5.953a.773.773 0 00-.744.744v20.093c0 .39.354.744.744.744h6.326c.39 0 .744-.355.744-.744V20.093c0-.942.297-1.834.732-2.442.436-.607.963-.907 1.5-.907h.744c.538 0 1.065.3 1.5.907.436.608.733 1.5.733 2.442v11.163c0 .39.355.744.744.744h6.326c.39 0 .744-.355.744-.744v-4.093a.774.774 0 00-.744-.755.774.774 0 00-.744.755v3.349h-4.838V20.093c0-1.243-.37-2.41-1.011-3.302-.64-.893-1.598-1.535-2.71-1.535h-.744c-1.111 0-2.069.642-2.709 1.535-.64.892-1.012 2.059-1.012 3.302v4.465h-.441a.774.774 0 00-.71.78c.018.389.39.727.78.709h.371v1.488h-.441a.774.774 0 00-.71.779c.018.39.39.728.78.71h.371v1.488h-4.837V11.907h4.465v1.86c0 .306.21.602.498.703a.764.764 0 00.828-.237c1.25-1.558 2.58-3.07 5.372-3.07 2.67 0 4.262.686 5.256 1.849.993 1.162 1.442 2.93 1.442 5.22v5.954a.774.774 0 00.744.755c.393 0 .75-.362.744-.755v-5.953c0-2.481-.465-4.635-1.79-6.187-1.326-1.551-3.457-2.372-6.396-2.372zm-22.395.745a.771.771 0 00-.675.744v20.093c0 .39.355.744.744.744h6.326c.39 0 .744-.355.744-.744V11.163a.773.773 0 00-.744-.744H1.419zm.814 1.488H7.07v12.651h-.442a.774.774 0 00-.71.78c.019.389.39.727.78.709h.372v1.488h-.442a.774.774 0 00-.71.779c.019.39.39.728.78.71h.372v1.488H2.233V11.907z" fill="#1F3F68"/></svg>
